X:32
T:God Bless the Prince of Wales
M:C
L:1/4
Q:70
C:Trad.
R:Processional
K:G
D | B>d c B | B2 A A | G>B A G | F3 D | d>B G F | E E2 c | B>G A>G | G3
B | A>E E G | F A2 F | E A d>^c | ^c3 c | d>^c B A | F A2 D | D>F E>D |
D3 D | B>d =c B | B2 A A | G>B A G | F3 D | d>B G>F | E E2 c | B>G A>G |
G4 ||
